site_src/Assets/svg/slots-svgrepo-com.svg

<?xml version="1.0" encoding="UTF-8"?>
<!-- Uploaded to: SVG Repo, www.svgrepo.com, Generator: SVG Repo Mixer Tools -->
<svg width="800px" height="800px" viewBox="0 0 73 73" version="1.1" xmlns="http://www.w3.org/2000/svg" xmlns:xlink="http://www.w3.org/1999/xlink">
    
    <title>web-components/slots</title>
    <desc>Created with Sketch.</desc>
    <defs>
        <rect id="path-1" x="0" y="0" width="69" height="69" rx="14">
</rect>
    </defs>
    <g id="web-components/slots" stroke="none" stroke-width="1" fill="none" fill-rule="evenodd">
        <g id="container" transform="translate(2.000000, 2.000000)">
            <rect id="mask" stroke="#AE2318" stroke-width="2" fill="#ED6D7D" fill-rule="nonzero" x="-1" y="-1" width="71" height="71" rx="14">
</rect>
            <g id="slot-machine-(2)">
                <mask id="mask-2" fill="white">
                    <use xlink:href="#path-1">
</use>
                </mask>
                <rect stroke="#AE2318" stroke-width="2" x="-1" y="-1" width="71" height="71" rx="14">
</rect>
                <g mask="url(#mask-2)">
                    <g transform="translate(-2.000000, -4.000000)">
                        <path d="M64.3027344,21.3867188 L8.69726562,21.3867188 C7.51614844,21.3867188 6.55859375,20.4291641 6.55859375,19.2480469 C6.55859375,8.63467383 15.3325664,0 26.1171758,0 L46.8826816,0 C57.6674336,0 66.4414062,8.63467383 66.4414062,19.2480469 C66.4414062,20.4291641 65.4838516,21.3867188 64.3027344,21.3867188 Z" id="Shape" fill="#FDF16C" fill-rule="nonzero">
</path>
                        <path d="M46.8826816,0 L36.5,0 L36.5,21.3867188 L64.3027344,21.3867188 C65.4838516,21.3867188 66.4414062,20.4291641 66.4414062,19.2480469 C66.4414062,8.63467383 57.6674336,0 46.8826816,0 Z" id="Shape" fill="#FAE168" fill-rule="nonzero">
</path>
                        <circle id="Oval" fill="#ED6D7D" fill-rule="nonzero" cx="32.2226562" cy="10.6933594" r="2.13867188">
</circle>
                        <circle id="Oval" fill="#ED6D7D" fill-rule="nonzero" cx="23.6679688" cy="10.6933594" r="2.13867188">
</circle>
                        <circle id="Oval" fill="#D44854" fill-rule="nonzero" cx="40.7773438" cy="10.6933594" r="2.13867188">
</circle>
                        <circle id="Oval" fill="#D44854" fill-rule="nonzero" cx="49.3320312" cy="10.6933594" r="2.13867188">
</circle>
                        <path d="M65.1582031,73 L7.84179688,73 C3.51783008,73 0,69.4821699 0,65.1582031 L0,24.9511719 C0,20.6272051 3.51783008,17.109375 7.84179688,17.109375 L65.1582031,17.109375 C69.4821699,17.109375 73,20.6272051 73,24.9511719 L73,65.1582031 C73,69.4821699 69.4821699,73 65.1582031,73 Z" id="Shape" fill="#ED6D7D" fill-rule="nonzero">
</path>
                        <path d="M65.1582031,17.109375 L36.5,17.109375 L36.5,73 L65.1582031,73 C69.4821699,73 73,69.4821699 73,65.1582031 L73,24.9511719 C73,20.6272051 69.4821699,17.109375 65.1582031,17.109375 Z" id="Shape" fill="#D44854" fill-rule="nonzero">
</path>
                        <polygon id="Shape" fill="#FFFFFF" fill-rule="nonzero" points="10.8359375 27.9524414 62.1640625 27.9524414 62.1640625 53.6165039 10.8359375 53.6165039">
</polygon>
                        <polygon id="Shape" fill="#E4DFD9" fill-rule="nonzero" points="36.5 27.9524414 62.1640625 27.9524414 62.1640625 53.6165039 36.5 53.6165039">
</polygon>
                        <path d="M27.9453125,27.1386055 C26.7641953,27.1386055 25.8066406,28.0113262 25.8066406,29.0880762 L25.8066406,52.4808691 C25.8066406,53.5574766 26.7641953,54.4303398 27.9453125,54.4303398 C29.1264297,54.4303398 30.0839844,53.5576191 30.0839844,52.4808691 L30.0839844,29.0880762 C30.0839844,28.0114688 29.1264297,27.1386055 27.9453125,27.1386055 Z" id="Shape" fill="#D44854" fill-rule="nonzero">
</path>
                        <path d="M45.0546875,27.1386055 C43.8735703,27.1386055 42.9160156,28.0113262 42.9160156,29.0880762 L42.9160156,52.4808691 C42.9160156,53.5574766 43.8735703,54.4303398 45.0546875,54.4303398 C46.2358047,54.4303398 47.1933594,53.5576191 47.1933594,52.4808691 L47.1933594,29.0880762 C47.1933594,28.0114688 46.2358047,27.1386055 45.0546875,27.1386055 Z" id="Shape" fill="#AE2318" fill-rule="nonzero">
</path>
                        <path d="M62.1640625,55.7551758 L10.8359375,55.7551758 C9.65482031,55.7551758 8.69726562,54.7976211 8.69726562,53.6165039 L8.69726562,27.9524414 C8.69726562,26.7713242 9.65482031,25.8137695 10.8359375,25.8137695 L62.1640625,25.8137695 C63.3451797,25.8137695 64.3027344,26.7713242 64.3027344,27.9524414 L64.3027344,53.6165039 C64.3027344,54.7976211 63.3451797,55.7551758 62.1640625,55.7551758 Z M12.9746094,51.477832 L60.0253906,51.477832 L60.0253906,30.0911133 L12.9746094,30.0911133 L12.9746094,51.477832 Z" id="Shape" fill="#D44854" fill-rule="nonzero">
</path>
                        <polygon id="Shape" fill="none" points="36.5 30.0911133 60.0253906 30.0911133 60.0253906 51.477832 36.5 51.477832">
</polygon>
                        <polygon id="Shape" fill="none" points="12.9746094 30.0911133 36.5 30.0911133 36.5 51.477832 12.9746094 51.477832">
</polygon>
                        <path d="M62.1640625,25.8137695 L36.5,25.8137695 L36.5,30.0911133 L60.0253906,30.0911133 L60.0253906,51.477832 L36.5,51.477832 L36.5,55.7551758 L62.1640625,55.7551758 C63.3451797,55.7551758 64.3027344,54.7976211 64.3027344,53.6165039 L64.3027344,27.9524414 C64.3027344,26.7713242 63.3451797,25.8137695 62.1640625,25.8137695 Z" id="Shape" fill="#AE2318" fill-rule="nonzero">
</path>
                        <path d="M22.1449492,37.1364687 C22.0519883,36.9337227 21.8495273,36.803834 21.6265352,36.803834 L16.7155742,36.803834 C16.4006191,36.803834 16.1452617,37.0591914 16.1452617,37.3741465 L16.1452617,38.6118672 C16.1452617,38.9268223 16.4006191,39.1821797 16.7155742,39.1821797 L19.3767949,39.1821797 L16.801834,43.9921953 C16.7071621,44.1688496 16.7122949,44.3822891 16.8153789,44.5543809 C16.9184629,44.7263301 17.1040996,44.8315527 17.304707,44.8315527 L19.0015293,44.8315527 C19.2148262,44.8315527 19.4103008,44.7125 19.5081094,44.5231562 L22.572541,38.5941875 C22.6530977,38.4383496 22.6575176,38.2539961 22.584375,38.0945937 L22.1449492,37.1364687 Z" id="Shape" fill="#5A5555" fill-rule="nonzero">
</path>
                        <path d="M39.2543242,37.1364687 C39.1613633,36.9338652 38.9589023,36.803834 38.7357676,36.803834 L33.8248066,36.803834 C33.5098516,36.803834 33.2544941,37.0591914 33.2544941,37.3741465 L33.2544941,38.6118672 C33.2544941,38.9268223 33.5098516,39.1821797 33.8248066,39.1821797 L36.4858848,39.1821797 L33.9109238,43.9921953 C33.816252,44.1688496 33.8213848,44.3822891 33.9244687,44.5543809 C34.0275527,44.7263301 34.2131895,44.8315527 34.4137969,44.8315527 L36.1106191,44.8315527 C36.323916,44.8315527 36.5193906,44.7125 36.6171992,44.5231562 L39.6816309,38.5941875 C39.7620449,38.4383496 39.7664648,38.2541387 39.6934648,38.0945937 L39.2543242,37.1364687 Z" id="Shape" fill="#5A5555" fill-rule="nonzero">
</path>
                        <path d="M39.6934648,38.0947363 L39.2543242,37.1364687 C39.1613633,36.9338652 38.9589023,36.803834 38.7357676,36.803834 L36.5,36.803834 L36.5,44.6762852 C36.546623,44.6326563 36.5869727,44.5817559 36.6173418,44.5231562 L39.6817734,38.5941875 C39.7621875,38.4384922 39.7664648,38.2542812 39.6934648,38.0947363 Z" id="Shape" fill="#453F3F" fill-rule="nonzero">
</path>
                        <path d="M56.8028398,38.0947363 L56.3636992,37.1364687 C56.2707383,36.9338652 56.0682773,36.803834 55.8451426,36.803834 L50.9343242,36.803834 C50.6193691,36.803834 50.3640117,37.0591914 50.3640117,37.3741465 L50.3640117,38.6118672 C50.3640117,38.9268223 50.6193691,39.1821797 50.9343242,39.1821797 L53.5952598,39.1821797 L51.0204414,43.9921953 C50.9257695,44.1688496 50.9309023,44.3822891 51.0339863,44.5543809 C51.1370703,44.7263301 51.322707,44.8315527 51.5233145,44.8315527 L53.2199941,44.8315527 C53.433291,44.8315527 53.628623,44.7125 53.7267168,44.5231562 L56.7910059,38.5941875 C56.8715625,38.4384922 56.8758398,38.2542812 56.8028398,38.0947363 Z" id="Shape" fill="#453F3F" fill-rule="nonzero">
</path>
                        <path d="M62.1640625,64.5878906 L10.8359375,64.5878906 C9.65482031,64.5878906 8.69726562,63.6303359 8.69726562,62.4492188 C8.69726562,61.2681016 9.65482031,60.3105469 10.8359375,60.3105469 L62.1640625,60.3105469 C63.3451797,60.3105469 64.3027344,61.2681016 64.3027344,62.4492188 C64.3027344,63.6303359 63.3451797,64.5878906 62.1640625,64.5878906 Z" id="Shape" fill="#D44854" fill-rule="nonzero">
</path>
                        <path d="M62.1640625,60.3105469 L36.5,60.3105469 L36.5,64.5878906 L62.1640625,64.5878906 C63.3451797,64.5878906 64.3027344,63.6303359 64.3027344,62.4492188 C64.3027344,61.2681016 63.3451797,60.3105469 62.1640625,60.3105469 Z" id="Shape" fill="#AE2318" fill-rule="nonzero">
</path>
                    </g>
                </g>
            </g>
        </g>
    </g>
</svg>

<svg xmlns="http://www.w3.org/2000/svg" xmlns:xlink="http://www.w3.org/1999/xlink" width="800" height="800" viewBox="0 0 73 73"><title>web-components/slots</title><defs><rect id="a" width="69" height="69" x="0" y="0" rx="14"/></defs><g fill="none" fill-rule="evenodd" transform="translate(2 2)"><rect width="71" height="71" x="-1" y="-1" fill="#ed6d7d" fill-rule="nonzero" stroke="#ae2318" stroke-width="2" rx="14"/><mask id="b" fill="#fff"><use xlink:href="#a"/></mask><rect width="71" height="71" x="-1" y="-1" stroke="#ae2318" stroke-width="2" rx="14"/><g mask="url(#b)"><g transform="translate(-2 -4)"><path fill="#fdf16c" fill-rule="nonzero" d="M64.303 21.387H8.697a2.14 2.14 0 0 1-2.138-2.139C6.559 8.635 15.333 0 26.117 0h20.766C57.667 0 66.44 8.635 66.44 19.248a2.14 2.14 0 0 1-2.138 2.139"/><path fill="#fae168" fill-rule="nonzero" d="M46.883 0H36.5v21.387h27.803a2.14 2.14 0 0 0 2.138-2.139C66.441 8.635 57.667 0 46.883 0"/><circle cx="32.223" cy="10.693" r="2.139" fill="#ed6d7d" fill-rule="nonzero"/><circle cx="23.668" cy="10.693" r="2.139" fill="#ed6d7d" fill-rule="nonzero"/><circle cx="40.777" cy="10.693" r="2.139" fill="#d44854" fill-rule="nonzero"/><circle cx="49.332" cy="10.693" r="2.139" fill="#d44854" fill-rule="nonzero"/><path fill="#ed6d7d" fill-rule="nonzero" d="M65.158 73H7.842C3.518 73 0 69.482 0 65.158V24.951c0-4.324 3.518-7.842 7.842-7.842h57.316c4.324 0 7.842 3.518 7.842 7.842v40.207C73 69.482 69.482 73 65.158 73"/><path fill="#d44854" fill-rule="nonzero" d="M65.158 17.11H36.5V73h28.658C69.482 73 73 69.482 73 65.158V24.951c0-4.324-3.518-7.842-7.842-7.842"/><path fill="#fff" fill-rule="nonzero" d="M10.836 27.952h51.328v25.665H10.836z"/><path fill="#e4dfd9" fill-rule="nonzero" d="M36.5 27.952h25.664v25.665H36.5z"/><path fill="#d44854" fill-rule="nonzero" d="M27.945 27.139c-1.18 0-2.138.872-2.138 1.95V52.48c0 1.076.957 1.95 2.138 1.95s2.139-.873 2.139-1.95V29.088c0-1.077-.958-1.95-2.139-1.95"/><path fill="#ae2318" fill-rule="nonzero" d="M45.055 27.139c-1.181 0-2.139.872-2.139 1.95V52.48c0 1.076.958 1.95 2.139 1.95s2.138-.873 2.138-1.95V29.088c0-1.077-.957-1.95-2.138-1.95"/><path fill="#d44854" fill-rule="nonzero" d="M62.164 55.755H10.836a2.14 2.14 0 0 1-2.139-2.138V27.952c0-1.18.958-2.138 2.139-2.138h51.328c1.181 0 2.139.957 2.139 2.138v25.665a2.14 2.14 0 0 1-2.139 2.138m-49.19-4.277h47.051V30.09h-47.05z"/><path d="M36.5 30.091h23.525v21.387H36.5zM12.975 30.091H36.5v21.387H12.975z"/><path fill="#ae2318" fill-rule="nonzero" d="M62.164 25.814H36.5v4.277h23.525v21.387H36.5v4.277h25.664a2.14 2.14 0 0 0 2.139-2.138V27.952a2.14 2.14 0 0 0-2.139-2.138"/><path fill="#5a5555" fill-rule="nonzero" d="M22.145 37.136a.57.57 0 0 0-.518-.332h-4.911a.57.57 0 0 0-.57.57v1.238c0 .315.255.57.57.57h2.66l-2.574 4.81a.57.57 0 0 0 .503.84h1.697a.57.57 0 0 0 .506-.309l3.065-5.929a.57.57 0 0 0 .011-.5zM39.254 37.136a.57.57 0 0 0-.518-.332h-4.911a.57.57 0 0 0-.57.57v1.238c0 .315.255.57.57.57h2.66l-2.574 4.81a.57.57 0 0 0 .503.84h1.697a.57.57 0 0 0 .506-.309l3.065-5.929a.57.57 0 0 0 .011-.5z"/><path fill="#453f3f" fill-rule="nonzero" d="m39.693 38.095-.439-.959a.57.57 0 0 0-.518-.332H36.5v7.872a.6.6 0 0 0 .117-.153l3.065-5.929a.57.57 0 0 0 .011-.5M56.803 38.095l-.44-.959a.57.57 0 0 0-.518-.332h-4.91a.57.57 0 0 0-.571.57v1.238c0 .315.255.57.57.57h2.661l-2.575 4.81a.57.57 0 0 0 .503.84h1.697a.57.57 0 0 0 .507-.309l3.064-5.929a.57.57 0 0 0 .012-.5"/><path fill="#d44854" fill-rule="nonzero" d="M62.164 64.588H10.836a2.139 2.139 0 0 1 0-4.277h51.328a2.139 2.139 0 0 1 0 4.277"/><path fill="#ae2318" fill-rule="nonzero" d="M62.164 60.31H36.5v4.278h25.664a2.139 2.139 0 0 0 0-4.277"/></g></g></g></svg>
